X: 1
T: Gold Ring, The
Z: Jeremy
S: https://thesession.org/tunes/37#setting37
R: jig
M: 6/8
L: 1/8
K: Gmaj
|:A|BAG A2d|cAG G2A|BAG A2d|cAG FGA|
BAG A2d|cAG GBd|gfg afd|cAF G2:|
|:A|BGB Bdc|A2A dcA|G2G BdB|cAG FGA|
B2B Bdc|A2A dcA|GFG BdB|cAF G2:|
|:e|fdd edd|fdd edd|fdd edd|cAF G3|
fdd edd|fdd edd|faf ged|cAF G2:|
|:e|gfg afd|cAF GBd|gfg afd|cAG F3|
gfg afd|Bdg fed|gfg afd|cAF G2:|
|:A|BDB BDB|ADA ADA|GFG GBd|cAG FGA|
BDB BDB|ADA ADA|G2G GBd|cAF G2:|
|:A|BAB D2D|ABA D2D|GFG GBd|cAG FGA|
BAB DED|ABA DED|G2G GBd|cAF G2:|
|:A|B2G A2G|d2G G2A|B2G A2G|cAG FGA|
B2G A2F|GFD GBd|gfg afd|cAF G2:|

